dist/img/sprites/hBook.svg

<svg width="32" height="32" viewBox="0 0 32 32" fill="none" xmlns="http://www.w3.org/2000/svg">
<path d="M20.0393 14.31C20.1993 14.47 20.4293 14.56 20.6593 14.56H26.4793C26.7093 14.56 26.9293 14.47 27.0993 14.31C27.2593 14.15 27.3493 13.93 27.3493 13.7C27.3493 13.47 27.2593 13.25 27.0993 13.09C26.9393 12.93 26.7093 12.84 26.4793 12.84H20.6593C20.4293 12.84 20.1993 12.93 20.0393 13.09C19.8693 13.25 19.7793 13.47 19.7793 13.7C19.7793 13.93 19.8693 14.15 20.0293 14.31H20.0393Z" fill="#4B8125"/>
<path d="M20.6495 8.21997C20.4195 8.21997 20.1895 8.30997 20.0295 8.46997C19.8595 8.62997 19.7695 8.84997 19.7695 9.07997C19.7695 9.30997 19.8595 9.52997 20.0195 9.68997C20.1795 9.84997 20.4095 9.93997 20.6395 9.93997H26.4595C26.6895 9.93997 26.9095 9.84997 27.0795 9.68997C27.2495 9.52997 27.3395 9.30997 27.3395 9.07997C27.3395 8.84997 27.2495 8.62997 27.0895 8.46997C26.9295 8.30997 26.6995 8.21997 26.4695 8.21997H20.6495Z" fill="#4B8125"/>
<path d="M15.96 4.49995L15.77 4.63995C15.26 3.95995 14.58 3.39995 13.82 3.02995C13.06 2.64995 12.2 2.44995 11.35 2.44995H2.03C1.49 2.44995 0.97 2.66995 0.59 3.03995C0.21 3.41995 0 3.92995 0 4.45995V22.93C0 23.47 0.21 23.97 0.6 24.35C0.98 24.73 1.5 24.94 2.04 24.94H11.35C12.35 24.94 13.32 25.34 14.02 26.04C14.74 26.75 15.13 27.69 15.13 28.7C15.13 28.93 15.22 29.1499 15.38 29.3099C15.71 29.6299 16.29 29.6399 16.62 29.3099C16.78 29.1499 16.87 28.93 16.87 28.7C16.87 27.7 17.26 26.75 17.98 26.04C18.7 25.33 19.65 24.94 20.65 24.94H29.96C30.5 24.94 31.02 24.73 31.4 24.35C31.78 23.97 32 23.46 32 22.93V4.45995C32 3.91995 31.79 3.41995 31.4 3.03995C31.02 2.65995 30.5 2.44995 29.96 2.44995H20.65C19.8 2.44995 18.94 2.64995 18.18 3.02995C17.42 3.40995 16.74 3.96995 16.23 4.63995L16.03 4.90995L15.8 4.67995L15.96 4.49995ZM15.13 24.67L14.66 24.32C14.66 24.32 14.6 24.27 14.56 24.25C13.84 23.67 12.8 23.3199 11.42 23.2299C11.39 23.2299 11.37 23.2299 11.34 23.2299H1.78L1.74 22.9799V4.20995L1.99 4.16995H11.35C12.36 4.16995 13.31 4.55995 14.02 5.26995C14.74 5.97995 15.13 6.91995 15.13 7.92995V24.67ZM16.87 7.92995C16.87 6.92995 17.26 5.97995 17.98 5.26995C18.7 4.55995 19.64 4.16995 20.65 4.16995H30.21L30.25 4.41995V23.18L29.96 23.2199H20.64C19.45 23.2199 18.28 23.61 17.33 24.32L16.86 24.67V7.92995H16.87Z" fill="#4B8125"/>
<path d="M20.0391 18.92C20.1991 19.08 20.4291 19.17 20.6591 19.17H26.4791C26.7091 19.17 26.9391 19.08 27.0991 18.92C27.2691 18.76 27.3591 18.5399 27.3591 18.3099C27.3591 18.0799 27.2691 17.86 27.1091 17.7C26.9491 17.54 26.7191 17.45 26.4891 17.45H20.6691C20.4391 17.45 20.2091 17.54 20.0491 17.7C19.8791 17.86 19.7891 18.0799 19.7891 18.3099C19.7891 18.5399 19.8791 18.76 20.0391 18.92Z" fill="#4B8125"/>
</svg>

<svg width="32" height="32" viewBox="0 0 32 32" fill="none" xmlns="http://www.w3.org/2000/svg"><path d="M20.04 14.31c.16.16.39.25.62.25h5.82c.23 0 .45-.09.62-.25.16-.16.25-.38.25-.61 0-.23-.09-.45-.25-.61a.886.886 0 00-.62-.25h-5.82c-.23 0-.46.09-.62.25-.17.16-.26.38-.26.61 0 .23.09.45.25.61h.01zm.61-6.09c-.23 0-.46.09-.62.25-.17.16-.26.38-.26.61 0 .23.09.45.25.61.16.16.39.25.62.25h5.82c.23 0 .45-.09.62-.25.17-.16.26-.38.26-.61 0-.23-.09-.45-.25-.61a.886.886 0 00-.62-.25h-5.82z" fill="#4B8125"/><path d="M15.96 4.5l-.19.14a5.427 5.427 0 00-1.95-1.61c-.76-.38-1.62-.58-2.47-.58H2.03c-.54 0-1.06.22-1.44.59-.38.38-.59.89-.59 1.42v18.47c0 .54.21 1.04.6 1.42.38.38.9.59 1.44.59h9.31c1 0 1.97.4 2.67 1.1.72.71 1.11 1.65 1.11 2.66 0 .23.09.45.25.61.33.32.91.33 1.24 0 .16-.16.25-.38.25-.61 0-1 .39-1.95 1.11-2.66.72-.71 1.67-1.1 2.67-1.1h9.31A2.035 2.035 0 0032 22.93V4.46c0-.54-.21-1.04-.6-1.42-.38-.38-.9-.59-1.44-.59h-9.31c-.85 0-1.71.2-2.47.58-.76.38-1.44.94-1.95 1.61l-.2.27-.23-.23.16-.18zm-.83 20.17l-.47-.35s-.06-.05-.1-.07c-.72-.58-1.76-.93-3.14-1.02H1.78l-.04-.25V4.21l.25-.04h9.36c1.01 0 1.96.39 2.67 1.1.72.71 1.11 1.65 1.11 2.66v16.74zm1.74-16.74c0-1 .39-1.95 1.11-2.66.72-.71 1.66-1.1 2.67-1.1h9.56l.04.25v18.76l-.29.04h-9.32c-1.19 0-2.36.39-3.31 1.1l-.47.35V7.93h.01z" fill="#4B8125"/><path d="M20.04 18.92c.16.16.39.25.62.25h5.82c.23 0 .46-.09.62-.25.17-.16.26-.38.26-.61 0-.23-.09-.45-.25-.61a.886.886 0 00-.62-.25h-5.82c-.23 0-.46.09-.62.25-.17.16-.26.38-.26.61 0 .23.09.45.25.61z" fill="#4B8125"/></svg>
